src/images/advantage-icon-5.svg

<svg fill="none" height="36" viewBox="0 0 44 36" width="44" xmlns="http://www.w3.org/2000/svg"><path d="m7.65 36c-.4 0-.75-.15-1.05-.45s-.45-.65-.45-1.05v-2.1h-.65c-1.52767 0-2.82633-.5347-3.896-1.604-1.069333-1.0697-1.604-2.3683-1.604-3.896v-12.2c0-1.7.516667-2.9917 1.55-3.875 1.03333-.88333 2.25-1.325 3.65-1.325v-4.3c0-1.53333.48333-2.78333 1.45-3.75.96667-.966667 2.21667-1.45 3.75-1.45h23.25c1.5333 0 2.775.483333 3.725 1.45.95.96667 1.425 2.21667 1.425 3.75v4.3c1.4 0 2.6167.44167 3.65 1.325 1.0333.8833 1.55 2.175 1.55 3.875v12.2c0 1.5277-.5347 2.8263-1.604 3.896-1.0697 1.0693-2.3683 1.604-3.896 1.604h-.65v2.1c0 .4-.15.75-.45 1.05s-.65.45-1.05.45-.75-.15-1.05-.45-.45-.65-.45-1.05v-2.1h-25.7v2.1c0 .4-.15.75-.45 1.05s-.65.45-1.05.45zm-2.15-6.6h33c.6667 0 1.25-.25 1.75-.75s.75-1.0833.75-1.75v-12.2c0-.6667-.2-1.2-.6-1.6s-.9333-.6-1.6-.6-1.2.2-1.6.6-.6.9333-.6 1.6v8.8h-29.2v-8.8c0-.6667-.2-1.2-.6-1.6s-.93333-.6-1.6-.6-1.2.2-1.6.6-.6.9333-.6 1.6v12.2c0 .6667.25 1.25.75 1.75s1.08333.75 1.75.75zm4.9-8.9h23.2v-5.8c0-1.0333.2333-1.8917.7-2.575s.9667-1.225 1.5-1.625v-5.3c0-.66667-.2-1.2-.6-1.6s-.929-.6-1.587-.6h-23.226c-.658 0-1.187.2-1.587.6s-.6.93333-.6 1.6v5.3c.53333.4 1.03333.9417 1.5 1.625.4667.6833.7 1.5417.7 2.575z" fill="#fcc241"/></svg>

<svg width="44" height="36" viewBox="0 0 44 36" fill="none" xmlns="http://www.w3.org/2000/svg">
<path d="M7.65 36C7.25 36 6.9 35.85 6.6 35.55C6.3 35.25 6.15 34.9 6.15 34.5V32.4H5.5C3.97233 32.4 2.67367 31.8653 1.604 30.796C0.534667 29.7263 0 28.4277 0 26.9V14.7C0 13 0.516667 11.7083 1.55 10.825C2.58333 9.94167 3.8 9.5 5.2 9.5V5.2C5.2 3.66667 5.68333 2.41667 6.65 1.45C7.61667 0.483333 8.86667 0 10.4 0H33.65C35.1833 0 36.425 0.483333 37.375 1.45C38.325 2.41667 38.8 3.66667 38.8 5.2V9.5C40.2 9.5 41.4167 9.94167 42.45 10.825C43.4833 11.7083 44 13 44 14.7V26.9C44 28.4277 43.4653 29.7263 42.396 30.796C41.3263 31.8653 40.0277 32.4 38.5 32.4H37.85V34.5C37.85 34.9 37.7 35.25 37.4 35.55C37.1 35.85 36.75 36 36.35 36C35.95 36 35.6 35.85 35.3 35.55C35 35.25 34.85 34.9 34.85 34.5V32.4H9.15V34.5C9.15 34.9 9 35.25 8.7 35.55C8.4 35.85 8.05 36 7.65 36ZM5.5 29.4H38.5C39.1667 29.4 39.75 29.15 40.25 28.65C40.75 28.15 41 27.5667 41 26.9V14.7C41 14.0333 40.8 13.5 40.4 13.1C40 12.7 39.4667 12.5 38.8 12.5C38.1333 12.5 37.6 12.7 37.2 13.1C36.8 13.5 36.6 14.0333 36.6 14.7V23.5H7.4V14.7C7.4 14.0333 7.2 13.5 6.8 13.1C6.4 12.7 5.86667 12.5 5.2 12.5C4.53333 12.5 4 12.7 3.6 13.1C3.2 13.5 3 14.0333 3 14.7V26.9C3 27.5667 3.25 28.15 3.75 28.65C4.25 29.15 4.83333 29.4 5.5 29.4ZM10.4 20.5H33.6V14.7C33.6 13.6667 33.8333 12.8083 34.3 12.125C34.7667 11.4417 35.2667 10.9 35.8 10.5V5.2C35.8 4.53333 35.6 4 35.2 3.6C34.8 3.2 34.271 3 33.613 3H10.387C9.729 3 9.2 3.2 8.8 3.6C8.4 4 8.2 4.53333 8.2 5.2V10.5C8.73333 10.9 9.23333 11.4417 9.7 12.125C10.1667 12.8083 10.4 13.6667 10.4 14.7V20.5Z" fill="#FCC241"/>
</svg>
